assets/images/clients/ROYAL CANIN.svg

<svg width="300" height="120" viewBox="0 0 300 120" fill="none" xmlns="http://www.w3.org/2000/svg">
<mask id="mask0_3300_14572" style="mask-type:luminance" maskUnits="userSpaceOnUse" x="95" y="25" width="126" height="49">
<path d="M220.53 25.9844H95.665V73.0605H220.53V25.9844Z" fill="white"/>
</mask>
<g mask="url(#mask0_3300_14572)">
<path d="M150.538 68.0303H147.179C147.067 68.0303 147.011 67.918 147.011 67.8618V57.6877C147.067 57.5191 147.067 57.2942 147.011 57.1256C146.843 56.1701 145.947 55.5518 144.995 55.6641C144.043 55.8328 143.427 56.7321 143.539 57.6877V70.3912C143.539 70.8971 143.931 71.3469 144.491 71.403H150.538C150.594 71.403 150.65 71.403 150.706 71.403C151.602 71.3469 152.274 70.5599 152.218 69.6605C152.218 68.5925 151.49 67.9742 150.538 68.0303ZM138.388 56.5073L129.429 68.6487C129.205 68.9298 129.093 69.267 129.093 69.6605C129.093 70.1664 129.317 70.7285 129.821 71.0096C130.605 71.5154 131.557 71.3469 132.117 70.6722L133.852 68.3115H138.052V69.6605C138.108 70.6161 138.892 71.3468 139.788 71.2906C140.74 71.2906 141.412 70.5036 141.412 69.6605V57.6315C141.412 57.1256 141.188 56.6197 140.852 56.3387C140.124 55.6641 139.004 55.7204 138.388 56.5073ZM137.996 64.8826H136.428C136.372 64.8826 136.316 64.8264 136.316 64.7703L137.996 62.4655C137.996 62.4094 137.996 64.8826 137.996 64.8826ZM133.46 57.6877C133.46 56.7884 132.732 56.0576 131.893 56.0576C131.445 56.0576 130.997 56.2262 130.717 56.5073L126.909 60.4983C126.853 60.5544 126.797 60.5544 126.741 60.5544C126.685 60.5544 126.629 60.5544 126.629 60.4983L122.822 56.5073C122.542 56.2262 122.094 56.0014 121.646 56.0014C120.75 56.0014 120.078 56.7321 120.078 57.5753C120.078 57.9687 120.246 58.4185 120.47 58.6995L125.117 64.0395L125.174 69.6605C125.174 70.5599 125.901 71.2906 126.797 71.2906C127.693 71.2906 128.421 70.5599 128.421 69.6605L128.533 64.0956L133.068 58.7557C133.348 58.4185 133.46 58.025 133.46 57.6877ZM113.807 56.0014C109.607 56.0014 106.192 59.4303 106.192 63.646C106.192 67.8618 109.607 71.2906 113.807 71.2906C118.006 71.2906 121.422 67.8055 121.422 63.5898C121.422 59.4865 118.006 56.0576 113.807 56.0014ZM113.807 67.6932C111.511 67.6932 109.719 65.8944 109.719 63.5898C109.719 61.2852 111.511 59.4865 113.807 59.4865C116.103 59.4865 117.894 61.2852 117.894 63.5898C117.894 65.8944 116.103 67.6932 113.807 67.6932ZM194.157 55.6641C193.317 55.7204 192.645 56.3949 192.645 57.1819V64.3205C192.645 64.3768 192.589 64.433 192.533 64.433C192.477 64.433 192.477 64.433 192.477 64.3768L188.334 57.0132C187.718 55.8889 186.262 55.5518 185.198 56.2262C184.582 56.6197 184.134 57.3504 184.078 58.0812V69.7729C184.134 70.7285 184.974 71.403 185.814 71.3469C186.654 71.2906 187.326 70.6161 187.382 69.7729V62.6342C187.382 62.578 187.438 62.5218 187.494 62.5218C187.55 62.5218 187.55 62.5218 187.55 62.578L191.805 70.1102C192.365 71.1782 193.709 71.5154 194.773 70.9534C195.501 70.5599 195.893 69.8291 195.893 69.0984V57.238C195.837 56.3387 195.109 55.6079 194.157 55.6641ZM103.504 65.0513C104.848 64.2081 105.744 62.7467 105.688 61.1727C105.688 61.1727 105.688 61.1727 105.688 61.1166C105.744 58.3622 103.504 56.0576 100.76 56.0014C99.4166 55.8889 98.0168 56.3387 97.0649 57.2942C96.001 58.3622 95.665 59.7113 95.665 61.1727L95.889 69.6605C95.889 70.5599 96.6169 71.2906 97.5128 71.2906C98.4087 71.2906 99.1366 70.5599 99.1366 69.6605L99.1926 65.6134C99.1926 65.5009 99.2486 65.4447 99.3606 65.4447C99.3606 65.4447 99.4166 65.4447 99.4726 65.4447L103.448 70.8971C103.728 71.1782 104.064 71.2906 104.512 71.2906C105.408 71.2906 106.08 70.5599 106.136 69.7167C106.136 69.4919 106.08 69.267 105.968 68.986L103.504 65.0513ZM100.648 62.6904C100.536 62.6904 100.48 62.6904 100.368 62.6904C99.4166 62.6342 98.8007 61.7911 98.8567 60.9479C98.9126 59.9923 99.7525 59.374 100.592 59.4303C100.704 59.4303 100.76 59.4303 100.872 59.4303C101.824 59.4865 102.44 60.3296 102.384 61.1727C102.328 62.0721 101.488 62.9153 100.648 62.6904ZM168.344 66.1754C168.12 66.1754 167.84 66.2317 167.56 66.3441L166.216 67.2435C165.601 67.637 164.817 67.8618 164.033 67.8618C161.681 67.7493 159.945 65.7258 160.057 63.4773C160.169 61.2852 161.849 59.5988 164.033 59.4865C164.817 59.4865 165.545 59.7113 166.216 60.1048L167.504 61.0041C167.728 61.1166 167.952 61.1727 168.288 61.1727C169.184 61.1727 169.912 60.442 169.912 59.5426C169.912 59.2053 169.8 58.7557 169.52 58.4747C168.232 56.957 166.329 56.0576 164.257 56.0576C160.057 56.0576 156.642 59.4865 156.642 63.7022C156.642 67.7493 159.777 71.1219 163.809 71.3469C165.993 71.3469 168.008 70.4474 169.52 68.8736C169.744 68.5925 169.912 68.2553 169.856 67.8055C170.024 66.9062 169.24 66.1754 168.344 66.1754ZM199.476 55.6079C198.469 55.6079 197.741 56.4511 197.741 57.3504V69.6605C197.741 70.6722 198.581 71.403 199.476 71.403C200.484 71.403 201.212 70.5599 201.212 69.6605V57.3504C201.212 56.3949 200.484 55.6079 199.476 55.6079ZM174 56.4511C173.664 56.1138 173.16 55.8889 172.656 55.8889C171.648 55.8889 170.92 56.3387 170.92 57.3504V69.6605C170.92 70.6161 171.704 71.2906 172.6 71.2906C173.496 71.2906 174.279 70.5599 174.336 69.6605V68.3115H178.535L180.271 70.6722C180.551 71.0657 181.111 71.2906 181.615 71.2906C182.567 71.2906 183.238 70.5036 183.238 69.6605C183.238 69.3233 183.126 68.9298 182.903 68.6487L174 56.4511ZM176.015 64.7703C176.015 64.8264 175.959 64.8826 175.903 64.8826H174.336V62.3532L176.015 64.714C176.071 64.714 176.071 64.714 176.015 64.7703ZM213.195 55.6641C212.355 55.7204 211.683 56.3949 211.683 57.1819V64.3205C211.683 64.3768 211.627 64.433 211.571 64.433C211.515 64.433 211.515 64.433 211.459 64.3768L207.371 57.0132C206.756 55.8889 205.3 55.5518 204.236 56.2262C203.62 56.6197 203.172 57.3504 203.116 58.0812V69.7729C203.116 70.7285 203.9 71.4592 204.796 71.4592C205.692 71.4592 206.476 70.6722 206.476 69.7729V62.6342C206.476 62.578 206.532 62.5218 206.588 62.5218C206.644 62.5218 206.644 62.5218 206.644 62.578L210.899 70.1102C211.459 71.1782 212.803 71.5154 213.867 70.9534C214.594 70.5599 214.987 69.8291 214.987 69.0984V57.238C214.875 56.3387 214.09 55.6079 213.195 55.6641ZM219.242 57.0694C219.242 57.0132 219.242 57.0132 219.242 56.957C219.242 56.5073 218.906 56.3949 218.514 56.3949H218.01C217.842 56.3949 217.786 56.5073 217.786 56.5636V58.0812C217.786 58.2498 217.842 58.306 218.01 58.306C218.178 58.306 218.235 58.1937 218.235 58.0812V57.5191H218.346L218.626 58.0812C218.682 58.1937 218.738 58.306 218.906 58.306C219.074 58.306 219.13 58.2498 219.13 58.1374C219.13 58.0812 219.13 58.0812 219.13 58.025L218.794 57.5191C219.018 57.5753 219.242 57.2942 219.242 57.0694ZM218.57 57.1819H218.235V56.7321H218.57C218.738 56.7321 218.85 56.7884 218.85 56.957C218.85 57.1256 218.738 57.1819 218.57 57.1819ZM218.514 55.5518C217.506 55.5518 216.723 56.3949 216.723 57.3504C216.723 58.306 217.563 59.1492 218.514 59.1492C219.466 59.1492 220.306 58.306 220.306 57.3504C220.25 56.3949 219.466 55.5518 218.514 55.5518ZM218.514 58.6995C217.731 58.6995 217.17 58.1374 217.17 57.3504C217.17 56.5636 217.731 56.0014 218.514 56.0014C219.298 56.0014 219.858 56.5636 219.858 57.3504C219.858 58.0812 219.242 58.6995 218.514 58.6995Z" fill="#949494"/>
<path d="M169.97 47.7939C166.386 45.152 161.011 43.5782 155.468 43.5782C149.924 43.5782 144.493 45.152 140.965 47.7939C140.629 48.0187 140.461 48.4122 140.461 48.8619C140.461 49.6489 141.021 50.211 141.805 50.211C142.085 50.211 142.365 50.0985 142.645 49.9299C145.053 48.1312 149.7 46.22 155.58 46.22C161.459 46.22 166.05 48.1312 168.458 49.9299L168.514 49.9862C169.074 50.3796 169.97 50.2672 170.362 49.6489C170.698 49.0305 170.586 48.1874 169.97 47.7939ZM155.468 46.7821C150.316 46.7821 145.445 48.2999 142.421 50.8293C142.421 50.8293 142.421 50.8293 142.365 50.8293C142.029 51.1666 141.973 51.7286 142.253 52.1221C142.421 52.3469 142.645 52.4594 142.981 52.4594C143.205 52.4594 143.373 52.4032 143.541 52.2346C146.229 49.9862 150.708 48.5809 155.412 48.5809C160.115 48.5809 164.538 49.9299 167.282 52.2346C167.674 52.5718 168.29 52.5156 168.57 52.1221C168.906 51.7286 168.85 51.1103 168.458 50.8293C165.434 48.3561 160.563 46.7821 155.468 46.7821ZM138.782 37.0578C139.174 35.4277 138.222 33.7976 136.542 33.2917C136.318 33.2355 136.038 33.1793 135.758 33.1793C134.078 33.1793 132.734 34.5283 132.734 36.2146C132.734 37.9009 134.078 39.25 135.758 39.25C137.27 39.3624 138.446 38.4068 138.782 37.0578ZM155.468 41.7795C157.147 41.7795 158.491 40.4304 158.491 38.7441C158.491 37.0578 157.147 35.7087 155.468 35.7087C153.788 35.7087 152.444 37.0578 152.444 38.7441C152.444 40.4304 153.732 41.7795 155.468 41.7795ZM155.468 34.0224C157.147 34.0224 158.491 32.6734 158.491 30.9871C158.491 29.3008 157.147 27.8955 155.468 27.8955C153.788 27.8955 152.444 29.2445 152.444 30.9309C152.388 32.6734 153.732 34.0224 155.468 34.0224ZM146.509 36.7767C144.885 37.2264 143.933 38.9689 144.381 40.599C144.717 41.8918 145.949 42.7912 147.293 42.8474H147.349C147.573 42.8474 147.853 42.7912 148.132 42.735C149.756 42.2853 150.708 40.599 150.316 38.9689C149.98 37.6199 148.748 36.6643 147.349 36.6643C147.013 36.6643 146.789 36.7205 146.509 36.7767ZM142.701 43.6906C143.093 42.0605 142.141 40.318 140.461 39.9245C140.238 39.8683 139.957 39.812 139.678 39.812C139.174 39.812 138.614 39.9807 138.11 40.2055C137.382 40.599 136.878 41.3298 136.71 42.0605C136.486 42.9036 136.598 43.6906 137.046 44.4214C137.55 45.3769 138.558 45.8828 139.678 45.939C140.181 45.939 140.797 45.8266 141.245 45.5455C141.973 45.152 142.533 44.4775 142.701 43.6906ZM162.803 42.6788C163.083 42.735 163.307 42.7912 163.643 42.7912C165.322 42.7912 166.666 41.386 166.666 39.7559C166.666 38.3506 165.714 37.1701 164.427 36.833C164.147 36.7767 163.923 36.7205 163.587 36.7205C161.907 36.7205 160.563 38.1258 160.563 39.812C160.507 41.105 161.459 42.3416 162.803 42.6788ZM164.819 35.259C165.042 35.3153 165.322 35.3715 165.658 35.3715C167.338 35.3715 168.682 33.9662 168.682 32.3361C168.682 30.9309 167.73 29.7504 166.442 29.4132C166.162 29.357 165.938 29.3008 165.602 29.3008C163.923 29.3008 162.579 30.706 162.579 32.3923C162.579 33.629 163.531 34.8656 164.819 35.259ZM172.769 40.2617C172.322 39.9807 171.762 39.8683 171.258 39.8683C169.578 39.8683 168.234 41.2173 168.234 42.9036C168.234 43.1284 168.29 43.4096 168.346 43.6906C168.514 44.4775 169.074 45.152 169.746 45.5455C171.202 46.4449 173.105 45.8828 173.945 44.4214C174.337 43.6906 174.449 42.9036 174.281 42.0605C173.945 41.386 173.441 40.7115 172.769 40.2617ZM178.089 35.5401C177.921 34.7531 177.361 34.0786 176.689 33.6852C175.233 32.7858 173.329 33.3479 172.49 34.8094C172.098 35.5401 171.986 36.327 172.154 37.1701C172.322 37.9571 172.881 38.6317 173.553 39.0251C175.009 39.9245 176.913 39.4186 177.753 37.9571C178.201 37.1701 178.313 36.2146 178.089 35.5401ZM145.333 35.3715C145.613 35.3715 145.893 35.3153 146.173 35.259C147.796 34.8094 148.748 33.0668 148.356 31.493C148.021 30.1439 146.789 29.2445 145.445 29.2445C145.165 29.2445 144.941 29.3008 144.605 29.357C142.981 29.8067 142.029 31.5492 142.421 33.1231C142.757 34.4159 143.933 35.3715 145.333 35.3715Z" fill="#949494"/>
</g>
</svg>

<svg width="300" height="120" viewBox="0 0 300 120" fill="none" xmlns="http://www.w3.org/2000/svg"><mask id="a" style="mask-type:luminance" maskUnits="userSpaceOnUse" x="95" y="25" width="126" height="49"><path d="M220.53 25.984H95.665v47.077H220.53V25.984Z" fill="#fff"/></mask><g mask="url(#a)" fill="#949494"><path d="M150.538 68.03h-3.359c-.112 0-.168-.112-.168-.168V57.688a.961.961 0 0 0 0-.562c-.168-.956-1.064-1.574-2.016-1.462-.952.169-1.568 1.068-1.456 2.024V70.39c0 .506.392.956.952 1.012h6.215c.896-.056 1.568-.843 1.512-1.743 0-1.067-.728-1.686-1.68-1.63Zm-12.15-11.523-8.959 12.142a1.573 1.573 0 0 0-.336 1.011c0 .506.224 1.069.728 1.35.784.505 1.736.337 2.296-.338l1.735-2.36h4.2v1.349c.056.955.84 1.686 1.736 1.63.952 0 1.624-.787 1.624-1.63V57.63c0-.505-.224-1.011-.56-1.292-.728-.675-1.848-.619-2.464.168Zm-.392 8.376h-1.568c-.056 0-.112-.057-.112-.113l1.68-2.304v2.417Zm-4.536-7.195c0-.9-.728-1.63-1.567-1.63-.448 0-.896.168-1.176.45l-3.808 3.99c-.056.056-.112.056-.168.056-.056 0-.112 0-.112-.056l-3.807-3.99c-.28-.282-.728-.507-1.176-.507-.896 0-1.568.731-1.568 1.574 0 .394.168.843.392 1.124l4.647 5.34.057 5.621c0 .9.727 1.63 1.623 1.63s1.624-.73 1.624-1.63l.112-5.564 4.535-5.34c.28-.337.392-.731.392-1.068ZM113.807 56c-4.2 0-7.615 3.43-7.615 7.645 0 4.216 3.415 7.645 7.615 7.645 4.199 0 7.615-3.486 7.615-7.701 0-4.104-3.416-7.532-7.615-7.589Zm0 11.692c-2.296 0-4.088-1.799-4.088-4.103 0-2.305 1.792-4.104 4.088-4.104 2.296 0 4.087 1.8 4.087 4.104 0 2.304-1.791 4.103-4.087 4.103Zm80.35-12.029c-.84.056-1.512.73-1.512 1.518v7.138c0 .057-.056.113-.112.113s-.056 0-.056-.056l-4.143-7.364c-.616-1.124-2.072-1.461-3.136-.787-.616.394-1.064 1.124-1.12 1.855v11.692c.056.956.896 1.63 1.736 1.574a1.69 1.69 0 0 0 1.568-1.574v-7.139c0-.056.056-.112.112-.112s.056 0 .056.056l4.255 7.532c.56 1.068 1.904 1.405 2.968.843a2.11 2.11 0 0 0 1.12-1.855v-11.86c-.056-.9-.784-1.63-1.736-1.574Zm-90.653 9.387c1.344-.843 2.24-2.304 2.184-3.878v-.056c.056-2.755-2.184-5.06-4.928-5.116-1.343-.112-2.743.338-3.695 1.293-1.064 1.068-1.4 2.417-1.4 3.879l.224 8.487c0 .9.728 1.63 1.624 1.63.896 0 1.624-.73 1.624-1.63l.056-4.047c0-.112.056-.168.168-.168h.112l3.975 5.452c.28.281.616.394 1.064.394.896 0 1.568-.731 1.624-1.574 0-.225-.056-.45-.168-.731l-2.464-3.935Zm-2.856-2.36h-.28c-.951-.057-1.567-.9-1.511-1.743.056-.956.895-1.574 1.735-1.518h.28c.952.056 1.568.9 1.512 1.743-.056.9-.896 1.742-1.736 1.517Zm67.696 3.484c-.224 0-.504.057-.784.17l-1.344.898a4.119 4.119 0 0 1-2.183.619c-2.352-.113-4.088-2.136-3.976-4.385.112-2.192 1.792-3.878 3.976-3.99.784 0 1.512.224 2.183.618l1.288.9c.224.112.448.168.784.168.896 0 1.624-.731 1.624-1.63 0-.338-.112-.787-.392-1.068a6.871 6.871 0 0 0-5.263-2.417c-4.2 0-7.615 3.428-7.615 7.644 0 4.047 3.135 7.42 7.167 7.645 2.184 0 4.199-.9 5.711-2.473.224-.281.392-.619.336-1.069.168-.899-.616-1.63-1.512-1.63Zm31.132-10.567c-1.007 0-1.735.843-1.735 1.742v12.31c0 1.012.84 1.743 1.735 1.743 1.008 0 1.736-.843 1.736-1.743V57.35c0-.955-.728-1.742-1.736-1.742ZM174 56.45a1.952 1.952 0 0 0-1.344-.562c-1.008 0-1.736.45-1.736 1.461v12.31c0 .956.784 1.63 1.68 1.63.896 0 1.679-.73 1.736-1.63V68.31h4.199l1.736 2.361c.28.394.84.619 1.344.619.952 0 1.623-.787 1.623-1.63 0-.338-.112-.731-.335-1.012L174 56.45Zm2.015 8.32c0 .055-.056.112-.112.112h-1.567v-2.53l1.679 2.361c.056 0 .056 0 0 .056Zm37.18-9.107c-.84.056-1.512.73-1.512 1.518v7.138c0 .057-.056.113-.112.113s-.056 0-.112-.056l-4.088-7.364c-.615-1.124-2.071-1.461-3.135-.787-.616.394-1.064 1.124-1.12 1.855v11.692c0 .956.784 1.686 1.68 1.686.896 0 1.68-.787 1.68-1.686v-7.139c0-.056.056-.112.112-.112s.056 0 .056.056l4.255 7.532c.56 1.068 1.904 1.405 2.968.843a2.112 2.112 0 0 0 1.12-1.855v-11.86c-.112-.9-.897-1.63-1.792-1.574Zm6.047 1.405v-.112c0-.45-.336-.562-.728-.562h-.504c-.168 0-.224.112-.224.169v1.517c0 .169.056.225.224.225s.225-.112.225-.225v-.562h.111l.28.562c.056.113.112.225.28.225.168 0 .224-.056.224-.169v-.112l-.336-.506c.224.056.448-.225.448-.45Zm-.672.113h-.335v-.45h.335c.168 0 .28.056.28.225s-.112.225-.28.225Zm-.056-1.63c-1.008 0-1.791.843-1.791 1.798 0 .956.84 1.8 1.791 1.8.952 0 1.792-.844 1.792-1.8-.056-.955-.84-1.798-1.792-1.798Zm0 3.148c-.783 0-1.344-.563-1.344-1.35 0-.786.561-1.349 1.344-1.349.784 0 1.344.563 1.344 1.35 0 .73-.616 1.349-1.344 1.349ZM169.97 47.794c-3.584-2.642-8.959-4.216-14.502-4.216-5.544 0-10.975 1.574-14.503 4.216-.336.225-.504.618-.504 1.068 0 .787.56 1.349 1.344 1.349.28 0 .56-.112.84-.281 2.408-1.799 7.055-3.71 12.935-3.71 5.879 0 10.47 1.911 12.878 3.71l.056.056c.56.394 1.456.281 1.848-.337.336-.618.224-1.462-.392-1.855Zm-14.502-1.012c-5.152 0-10.023 1.518-13.047 4.047h-.056c-.336.338-.392.9-.112 1.293.168.225.392.337.728.337a.718.718 0 0 0 .56-.224c2.688-2.249 7.167-3.654 11.871-3.654 4.703 0 9.126 1.349 11.87 3.654.392.337 1.008.28 1.288-.113.336-.393.28-1.012-.112-1.293-3.024-2.473-7.895-4.047-12.99-4.047Zm-16.686-9.724c.392-1.63-.56-3.26-2.24-3.766a3.294 3.294 0 0 0-.784-.113 3.017 3.017 0 0 0-3.024 3.036 3.017 3.017 0 0 0 3.024 3.035c1.512.112 2.688-.843 3.024-2.192Zm16.686 4.721a3.017 3.017 0 0 0 3.023-3.035 3.017 3.017 0 0 0-3.023-3.035 3.017 3.017 0 0 0-3.024 3.035c0 1.686 1.288 3.035 3.024 3.035Zm0-7.757a3.017 3.017 0 0 0 3.023-3.035c0-1.686-1.344-3.091-3.023-3.091a3.017 3.017 0 0 0-3.024 3.035c-.056 1.742 1.288 3.091 3.024 3.091Zm-8.959 2.755c-1.624.45-2.576 2.192-2.128 3.822.336 1.293 1.568 2.192 2.912 2.248h.056c.224 0 .504-.056.783-.112 1.624-.45 2.576-2.136 2.184-3.766a3.061 3.061 0 0 0-2.967-2.305c-.336 0-.56.056-.84.113Zm-3.808 6.914c.392-1.63-.56-3.373-2.24-3.767a3.285 3.285 0 0 0-.783-.112c-.504 0-1.064.169-1.568.394-.728.393-1.232 1.124-1.4 1.854-.224.844-.112 1.63.336 2.361.504.956 1.512 1.462 2.632 1.518.503 0 1.119-.112 1.567-.394.728-.393 1.288-1.068 1.456-1.854Zm20.102-1.012c.28.056.504.112.84.112 1.679 0 3.023-1.405 3.023-3.035a3.017 3.017 0 0 0-2.239-2.923c-.28-.056-.504-.112-.84-.112-1.68 0-3.024 1.405-3.024 3.091-.056 1.293.896 2.53 2.24 2.867Zm2.016-7.42c.223.056.503.112.839.112 1.68 0 3.024-1.405 3.024-3.035a3.017 3.017 0 0 0-2.24-2.923c-.28-.056-.504-.112-.84-.112-1.679 0-3.023 1.405-3.023 3.091 0 1.237.952 2.474 2.24 2.867Zm7.95 5.003c-.447-.281-1.007-.394-1.511-.394a3.017 3.017 0 0 0-3.024 3.036c0 .224.056.506.112.787.168.786.728 1.461 1.4 1.854 1.456.9 3.359.338 4.199-1.124.392-.73.504-1.517.336-2.36-.336-.675-.84-1.35-1.512-1.8Zm5.32-4.722c-.168-.787-.728-1.461-1.4-1.855-1.456-.9-3.36-.337-4.199 1.124-.392.731-.504 1.518-.336 2.361.168.787.727 1.462 1.399 1.855 1.456.9 3.36.394 4.2-1.068.448-.787.56-1.742.336-2.417Zm-32.756-.169c.28 0 .56-.056.84-.112 1.623-.45 2.575-2.192 2.183-3.766-.335-1.35-1.567-2.248-2.911-2.248-.28 0-.504.056-.84.112-1.624.45-2.576 2.192-2.184 3.766a3.01 3.01 0 0 0 2.912 2.248Z"/></g></svg>
